public/images/logo.svg

<svg width="169" height="44" viewBox="0 0 169 44" fill="none" xmlns="http://www.w3.org/2000/svg">
<g clip-path="url(#clip0_40_449)">
<path d="M26.7353 20.4451C25.2611 27.223 19.5532 32.0216 12.9733 32.0216L12.7422 32.0216L14.6192 23.4012C14.9483 21.888 13.8593 20.4451 12.3885 20.4451L2.52747 20.4451L3.02122 18.1845L3.15078 17.5741L4.81063 9.97114C4.9472 9.33108 5.49348 8.87231 6.1203 8.87231L18.0159 8.87231C23.7693 8.87231 28.024 14.5255 26.7353 20.4488" fill="#5323E5"/>
<path d="M26.7353 20.4451C25.2611 27.223 19.5532 32.0216 12.9733 32.0216L12.7422 32.0216L14.6192 23.4012C14.9483 21.888 13.8593 20.4451 12.3885 20.4451L2.52747 20.4451L3.02122 18.1845L3.15078 17.5741L4.81063 9.97114C4.9472 9.33108 5.49348 8.87231 6.1203 8.87231L18.0159 8.87231C23.7693 8.87231 28.024 14.5255 26.7353 20.4488" fill="#5323E5"/>
<path d="M0 32.02L9.89957 40.0225C10.3408 40.3703 10.9781 40.1261 11.1007 39.5564L12.743 32.02L0 32.02Z" fill="#76F4DC"/>
<mask id="mask0_40_449" style="mask-type:luminance" maskUnits="userSpaceOnUse" x="2" y="14" width="20" height="20">
<path d="M5.36082 15.9388C2.04112 17.5445 2.65393 21.2887 2.65393 24.8959C2.65393 30.1347 4.5484 33.7716 10.4244 33.7716C16.3004 33.7716 21.0664 29.5243 21.0664 24.2854C21.0664 19.0466 16.3004 14.7993 10.4244 14.7993C8.59297 14.7993 6.86659 15.2137 5.36082 15.9388Z" fill="white"/>
</mask>
<g mask="url(#mask0_40_449)">
<path d="M2.04102 14.7993L2.04102 33.7716L4.17711 33.7716L4.17711 31.9698L13.5444 31.9698L13.5444 31.8884L13.9016 31.8884L13.9016 30.1088L21.0663 30.1088L21.0663 14.7993L2.04102 14.7993Z" fill="url(#paint0_radial_40_449)"/>
</g>
<path d="M2.52829 20.4434L2.03804 22.7039L0.283645 30.762L0.17509 31.254L-1.23773e-10 32.0162L12.743 32.0162L14.62 23.3995C14.9491 21.8863 13.8601 20.4434 12.3893 20.4434L4.72742 20.4434C3.60334 20.4434 2.76992 19.3409 3.02555 18.1829L2.5318 20.4434L2.52829 20.4434Z" fill="url(#paint1_linear_40_449)"/>
<path d="M44.6996 11.594C47.1754 11.594 49.1504 12.3154 50.6177 13.7657C52.0849 15.2123 52.8168 17.188 52.8168 19.6927C52.8168 22.1974 52.0779 24.2212 50.6002 25.7048C49.1224 27.1847 47.1544 27.9283 44.6996 27.9283L39.7761 27.9283L39.7761 35.7126L35.1152 35.7126L35.1152 11.5977L44.6996 11.5977L44.6996 11.594ZM44.5035 23.2371C45.6766 23.2371 46.5696 22.9263 47.1754 22.3084C47.7847 21.6869 48.0894 20.8396 48.0894 19.7593C48.0894 18.679 47.7847 17.8022 47.1754 17.1917C46.5661 16.5849 45.6766 16.2779 44.5035 16.2779L39.7761 16.2779L39.7761 23.2371L44.5035 23.2371Z" fill="white"/>
<path d="M66.4949 16.7622L71.1593 16.7622L71.1593 35.7086L66.4949 35.7086L66.4949 33.0928C65.1257 35.1129 63.2768 36.1229 60.9516 36.1229C58.973 36.1229 57.4148 35.4496 56.2732 34.1066C55.1316 32.7636 54.5608 30.9433 54.5608 28.6458L54.5608 16.7622L59.2252 16.7622L59.2252 27.5802C59.2252 28.8677 59.4808 29.8334 59.9921 30.4734C60.5033 31.1172 61.3438 31.4391 62.5204 31.4391C63.802 31.4391 64.786 31.0358 65.4724 30.2329C66.1552 29.4301 66.4984 28.2573 66.4984 26.7182L66.4984 16.7622L66.4949 16.7622Z" fill="white"/>
<path d="M83.8293 16.3496C84.134 16.3496 84.4807 16.3718 84.8729 16.4199L84.8729 21.4848C84.3931 21.4404 84.0149 21.4145 83.7313 21.4145C82.0785 21.4145 80.7478 21.8659 79.7393 22.7761C78.7272 23.6825 78.223 25.1809 78.223 27.2712L78.223 35.7103L73.5586 35.7103L73.5586 16.764L78.223 16.764L78.223 20.0715C79.3331 17.5927 81.1995 16.3533 83.8329 16.3533" fill="white"/>
<path d="M97.2806 16.3496C99.6058 16.3496 101.553 17.2745 103.118 19.1207C104.683 20.9706 105.464 23.3421 105.464 26.2353C105.464 29.1285 104.687 31.5 103.132 33.3499C101.577 35.1998 99.6268 36.1247 97.2806 36.1247C94.9344 36.1247 93.019 35.1369 91.6077 33.1612L91.6077 41.2673L86.9434 43.0321L86.9434 16.764L91.6077 16.764L91.6077 19.4167C92.998 17.3744 94.8889 16.3496 97.2806 16.3496ZM96.2056 31.4371C97.5083 31.4371 98.5903 30.9562 99.4518 29.9905C100.31 29.0249 100.74 27.7744 100.74 26.2353C100.74 24.6962 100.317 23.4457 99.4693 22.4801C98.6218 21.5144 97.5328 21.0335 96.2091 21.0335C94.8854 21.0335 93.7859 21.5144 92.9174 22.4801C92.049 23.4457 91.6148 24.6962 91.6148 26.2353C91.6148 27.7744 92.049 29.0249 92.9174 29.9905C93.7859 30.9562 94.8854 31.4371 96.2091 31.4371" fill="white"/>
<path d="M109.717 19.1765C111.52 17.2933 113.727 16.3499 116.335 16.3499C118.944 16.3499 121.157 17.2933 122.971 19.1765C124.785 21.0596 125.696 23.4126 125.696 26.2392C125.696 29.0658 124.799 31.4485 123.006 33.3168C121.213 35.1889 118.99 36.1249 116.339 36.1249C113.688 36.1249 111.496 35.1852 109.703 33.2983C107.91 31.4152 107.014 29.0621 107.014 26.2355C107.014 23.4089 107.914 21.0559 109.721 19.1728M119.648 22.4803C118.769 21.5147 117.663 21.0337 116.339 21.0337C115.015 21.0337 113.909 21.5147 113.03 22.4803C112.147 23.4459 111.71 24.6965 111.71 26.2355C111.71 27.7746 112.151 29.0251 113.03 29.9908C113.909 30.9564 115.012 31.4374 116.339 31.4374C117.666 31.4374 118.769 30.9564 119.648 29.9908C120.527 29.0251 120.968 27.7746 120.968 26.2355C120.968 24.6965 120.527 23.4459 119.648 22.4803Z" fill="white"/>
<path d="M135.298 36.1247C132.886 36.1247 130.876 35.5327 129.268 34.3488C127.661 33.1649 126.694 31.5407 126.365 29.4726L131.093 29.4726C131.485 31.1708 132.931 32.0217 135.431 32.0217C137.452 32.0217 138.464 31.5037 138.464 30.4715C138.464 30.3346 138.446 30.2088 138.415 30.0941C138.383 29.9794 138.327 29.8758 138.25 29.7834C138.173 29.6909 138.093 29.6058 138.005 29.5244C137.918 29.443 137.792 29.369 137.631 29.2987C137.466 29.2284 137.322 29.1729 137.189 29.1285C137.06 29.0841 136.867 29.0249 136.618 28.9546C136.37 28.8843 136.153 28.8288 135.967 28.7844C135.782 28.74 135.526 28.6808 135.2 28.6142C134.875 28.5476 134.591 28.4773 134.353 28.407C131.677 27.7411 129.814 27.0122 128.76 26.2205C127.706 25.4288 127.178 24.2411 127.178 22.654C127.178 20.6783 127.889 19.1355 129.314 18.0219C130.739 16.9083 132.644 16.3496 135.036 16.3496C137.427 16.3496 139.287 16.8972 140.611 17.9849C141.938 19.0763 142.764 20.5525 143.09 22.4135L138.362 22.4135C137.97 21.126 136.808 20.4822 134.875 20.4822C132.942 20.4822 131.874 21.0113 131.874 22.0657C131.874 22.4801 132.08 22.7798 132.493 22.961C132.907 23.146 133.842 23.4087 135.298 23.7528C136.755 24.0969 137.907 24.415 138.755 24.6999C139.602 24.9885 140.407 25.3585 141.167 25.8172C141.927 26.276 142.47 26.8273 142.799 27.471C143.125 28.1148 143.289 28.8954 143.289 29.8129C143.289 31.8552 142.54 33.4202 141.041 34.4968C139.542 35.5771 137.627 36.1173 135.302 36.1173" fill="white"/>
<path d="M153.966 16.3499C156.901 16.3499 159.223 17.4191 160.928 19.5538C162.633 21.6886 163.369 24.3413 163.131 27.512L149.372 27.512C149.523 28.9845 150.023 30.1092 150.871 30.8861C151.718 31.6668 152.772 32.0589 154.033 32.0589C154.947 32.0589 155.759 31.848 156.477 31.4226C157.195 30.9971 157.706 30.42 158.011 29.6837L162.836 29.6837C162.206 31.8185 161.096 33.4278 159.51 34.5082C157.923 35.5885 156.106 36.1286 154.064 36.1286C151.284 36.1286 149.011 35.1963 147.25 33.339C145.489 31.4781 144.61 29.125 144.61 26.2762C144.61 23.4274 145.489 21.0633 147.25 19.1802C149.011 17.297 151.249 16.3573 153.966 16.3573M153.935 20.4233C152.828 20.4233 151.9 20.7377 151.161 21.3704C150.423 22.0031 149.901 22.8466 149.596 23.901L158.172 23.901C157.909 22.8466 157.412 22.0031 156.673 21.3704C155.934 20.7377 155.02 20.4233 153.935 20.4233Z" fill="white"/>
</g>
<defs>
<radialGradient id="paint0_radial_40_449" cx="0" cy="0" r="1" gradientUnits="userSpaceOnUse" gradientTransform="translate(10.7625 24.3543) scale(9.93325 8.85613)">
<stop stop-color="#2806BA"/>
<stop offset="1" stop-color="#5323E5"/>
</radialGradient>
<linearGradient id="paint1_linear_40_449" x1="2.25866" y1="29.578" x2="12.6587" y2="22.1661" gradientUnits="userSpaceOnUse">
<stop stop-color="#574AFF"/>
<stop offset="0.97" stop-color="#508FFF"/>
</linearGradient>
<clipPath id="clip0_40_449">
<rect width="171.561" height="42.4182" fill="white" transform="translate(0 0.0151367) scale(0.98507 1.01409)"/>
</clipPath>
</defs>
</svg>

<svg xmlns="http://www.w3.org/2000/svg" width="169" height="44" fill="none"><g clip-path="url(#a)"><path fill="#5323E5" d="M26.735 20.445c-1.474 6.778-7.182 11.577-13.762 11.577h-.23l1.876-8.62c.33-1.514-.76-2.957-2.23-2.957H2.527l.494-2.26.13-.61L4.81 9.97c.136-.64.682-1.099 1.31-1.099h11.895c5.753 0 10.008 5.653 8.72 11.577"/><path fill="#5323E5" d="M26.735 20.445c-1.474 6.778-7.182 11.577-13.762 11.577h-.23l1.876-8.62c.33-1.514-.76-2.957-2.23-2.957H2.527l.494-2.26.13-.61L4.81 9.97c.136-.64.682-1.099 1.31-1.099h11.895c5.753 0 10.008 5.653 8.72 11.577"/><path fill="#76F4DC" d="m0 32.02 9.9 8.002c.44.348 1.078.104 1.2-.466l1.643-7.536z"/><mask id="b" width="20" height="20" x="2" y="14" maskUnits="userSpaceOnUse" style="mask-type:luminance"><path fill="#fff" d="M5.36 15.939c-3.319 1.605-2.706 5.35-2.706 8.957 0 5.239 1.894 8.876 7.77 8.876s10.642-4.248 10.642-9.487S16.3 14.8 10.424 14.8c-1.831 0-3.557.415-5.063 1.14"/></mask><g mask="url(#b)"><path fill="url(#c)" d="M2.041 14.8v18.972h2.136V31.97h9.367v-.082h.358v-1.78h7.164V14.8z"/></g><path fill="url(#d)" d="m2.528 20.443-.49 2.26-1.754 8.059-.109.492-.175.762h12.743L14.62 23.4c.33-1.514-.76-2.957-2.23-2.957H4.726c-1.124 0-1.957-1.102-1.701-2.26l-.494 2.26z"/><path fill="#fff" d="M44.7 11.594c2.475 0 4.45.721 5.918 2.172q2.2 2.17 2.199 5.927c0 2.504-.74 4.528-2.217 6.012q-2.218 2.222-5.9 2.223h-4.924v7.785h-4.66V11.598H44.7zm-.197 11.643q1.763 0 2.672-.929.914-.93.914-2.549c0-1.08-.304-1.957-.914-2.567q-.912-.912-2.671-.914h-4.728v6.96zM66.495 16.762h4.664V35.71h-4.664v-2.616q-2.055 3.03-5.543 3.03-2.967 0-4.679-2.016t-1.712-5.461V16.762h4.664V27.58q0 1.932.767 2.893.765.966 2.528.966 1.923 0 2.952-1.206 1.025-1.206 1.026-3.515v-9.956zM83.83 16.35q.455-.001 1.043.07v5.065q-.718-.069-1.142-.07c-1.652 0-2.983.45-3.992 1.361q-1.517 1.36-1.516 4.495v8.44h-4.664V16.763h4.664v3.308c1.11-2.48 2.977-3.719 5.61-3.719M97.28 16.35q3.49 0 5.838 2.77 2.347 2.775 2.346 7.115t-2.332 7.115-5.851 2.775c-2.347 0-4.262-.988-5.673-2.964v8.106l-4.665 1.765V16.764h4.665v2.653q2.084-3.066 5.673-3.067m-1.074 15.087q1.953.002 3.246-1.447 1.288-1.447 1.288-3.755t-1.27-3.755q-1.274-1.448-3.26-1.447-1.989-.001-3.293 1.447-1.302 1.448-1.302 3.755t1.302 3.756q1.305 1.447 3.292 1.446M109.717 19.177q2.705-2.827 6.618-2.827t6.636 2.826q2.723 2.825 2.725 7.063c0 2.827-.897 5.21-2.69 7.078q-2.69 2.808-6.667 2.808c-2.651 0-4.843-.94-6.636-2.827q-2.69-2.823-2.689-7.063-.002-4.239 2.707-7.062m9.927 3.307c-.879-.965-1.985-1.446-3.309-1.446s-2.43.48-3.309 1.446c-.883.966-1.32 2.217-1.32 3.755q0 2.308 1.32 3.756 1.319 1.447 3.309 1.446 1.99.002 3.309-1.446t1.32-3.756q0-2.307-1.32-3.755M135.298 36.125q-3.618 0-6.03-1.776-2.41-1.775-2.903-4.876h4.728q.588 2.548 4.338 2.549 3.032-.001 3.033-1.55-.001-.206-.049-.378a.8.8 0 0 0-.165-.31 3 3 0 0 0-.245-.26 1.3 1.3 0 0 0-.374-.225 6 6 0 0 0-.442-.17 16.011 16.011 0 0 0-1.222-.344 23 23 0 0 0-.767-.17 10 10 0 0 1-.847-.208q-4.013-1-5.593-2.186-1.582-1.187-1.582-3.567 0-2.962 2.136-4.632 2.136-1.672 5.722-1.672 3.588.002 5.575 1.635 1.99 1.636 2.479 4.429h-4.728q-.588-1.932-3.487-1.932c-1.933 0-3.001.53-3.001 1.584q0 .622.619.895.621.277 2.805.792 2.185.518 3.457.947 1.271.431 2.412 1.117 1.14.688 1.632 1.654.49.965.49 2.342c0 2.042-.749 3.607-2.248 4.684q-2.25 1.62-5.739 1.62M153.966 16.35q4.404.002 6.962 3.204 2.559 3.202 2.203 7.958h-13.759q.227 2.209 1.499 3.374 1.27 1.172 3.162 1.173 1.369 0 2.444-.636c.718-.426 1.229-1.003 1.534-1.74h4.825q-.946 3.204-3.326 4.825-2.382 1.62-5.446 1.62-4.171-.002-6.814-2.789-2.64-2.79-2.64-7.063t2.64-7.096q2.641-2.824 6.716-2.823m-.031 4.066c-1.107 0-2.035.315-2.774.947q-1.107.95-1.565 2.531h8.576c-.263-1.054-.76-1.898-1.499-2.53q-1.11-.949-2.738-.948"/></g><defs><radialGradient id="c" cx="0" cy="0" r="1" gradientTransform="matrix(9.93325 0 0 8.85613 10.762 24.354)" gradientUnits="userSpaceOnUse"><stop stop-color="#2806BA"/><stop offset="1" stop-color="#5323E5"/></radialGradient><linearGradient id="d" x1="2.259" x2="12.659" y1="29.578" y2="22.166" gradientUnits="userSpaceOnUse"><stop stop-color="#574AFF"/><stop offset=".97" stop-color="#508FFF"/></linearGradient><clipPath id="a"><path fill="#fff" d="M0 .015h169v43.016H0z"/></clipPath></defs></svg>
